X:1
T:Keighley, 88.86
T:Keighley, 88.86
T:T. H. Williams, 1889
T:Public Domain Courtesy of the Cyber Hymnal™
C:T. H. Williams, 1889
Z:Public Domain
Z:Courtesy of the Cyber Hymnal™
%%score ( 1 2 ) ( 3 4 )
L:1/8
Q:1/4=108
M:3/4
K:Eb
V:1 treble 
V:2 treble 
V:3 bass 
V:4 bass 
V:1
 [EG]2 E2 [EF]2 | [EG]4 [EG]2 | (A2 E2) [EF]2 | [EG]4 [EG]2 | ([DF]2 [^C=E]2) [DF]2 | [FA]4 [EG]2 | %6
 (F2 E2) [CF]2 | [DG]6 | [GB]2 [_Gc]2 [FB]2 | [EB]4 [EG]2 | ([EB]2 [Gc]2) [=EG]2 | A6 | %12
 [EG]2 [EA]2 [EB]2 | [EF]4 [DF]2 | E6 |] %15
V:2
 x2 E2 x2 | x6 | E4 x2 | x6 | x6 | x6 | C4 x2 | x6 | x6 | x6 | x6 | (F2 D4) | x6 | x6 | E6 |] %15
V:3
 [E,B,]2 [E,G,]2 [E,A,]2 | (B,2 C2) [E,_D]2 | [A,,C]4 [A,,_C]2 | [E,B,]4 [E,B,]2 | %4
 (A,2 G,2) [B,,A,]2 | [F,C]4 [G,C]2 | A,4 [A,C]2 | [G,=B,]6 | [E,B,]2 [E,=A,]2 [E,_A,]2 | %9
 [E,G,]4 [E,B,]2 | ([G,E]2 [=E,C]2) [C,C]2 | (C2 B,4) | B,2 [C,C]2 [G,,_D]2 | [A,,C]4 [B,,A,]2 | %14
 [E,G,]6 |] %15
V:4
 x6 | E,4 x2 | x6 | x6 | B,,4 x2 | x6 | A,4 x2 | x6 | x6 | x6 | x6 | F,6 | (E,_D,) x4 | x6 | x6 |] %15

